img/headerServices/4.svg

<svg width="46" height="46" viewBox="0 0 46 46" fill="none" xmlns="http://www.w3.org/2000/svg">
<path d="M44.709 37.2546C44.709 37.5944 44.4335 37.8698 44.0938 37.8698H1.90625C1.56646 37.8698 1.29102 37.5944 1.29102 37.2546C1.29102 36.9148 1.56646 36.6394 1.90625 36.6394H44.0938C44.4335 36.6394 44.709 36.9147 44.709 37.2546ZM44.709 8.74552V33.2174C44.709 33.5572 44.4335 33.8327 44.0938 33.8327H41.2029C40.9282 35.1447 39.7625 36.1332 38.37 36.1332C36.9776 36.1332 35.8119 35.1447 35.5372 33.8327H34.952C34.6772 35.1447 33.5115 36.1332 32.1191 36.1332C30.7266 36.1332 29.5609 35.1447 29.2862 33.8327H27.3469C27.0071 33.8327 26.7317 33.5572 26.7317 33.2174V31.5654H19.2687V33.2267C19.2687 33.5664 18.9932 33.8419 18.6535 33.8419H16.712C16.4336 35.1493 15.2704 36.1331 13.8812 36.1331C12.492 36.1331 11.3287 35.1493 11.0504 33.8419H10.4609C10.1826 35.1493 9.01933 36.1331 7.63013 36.1331C6.24093 36.1331 5.07761 35.1493 4.79935 33.8419H1.90625C1.56646 33.8419 1.29102 33.5664 1.29102 33.2267V8.74859C1.29102 8.4089 1.56646 8.13336 1.90616 8.13336L44.0937 8.13037C44.2569 8.13037 44.4134 8.19515 44.5287 8.31055C44.6442 8.42595 44.709 8.58239 44.709 8.74552ZM2.52148 9.36374V10.52H43.4785V9.36084L2.52148 9.36374ZM43.4785 30.335V29.1697H2.52148V30.335H43.4785ZM34.4786 31.5654C34.6968 31.8724 34.8567 32.2232 34.9421 32.6022H35.547C35.6324 32.2232 35.7923 31.8724 36.0105 31.5654H34.4786ZM9.98955 31.5654C10.2095 31.8748 10.3704 32.2289 10.4552 32.6114H11.0558C11.1407 32.2288 11.3014 31.8748 11.5214 31.5654H9.98955ZM39.0538 27.9392V11.7505H35.5217V27.9392H39.0538ZM34.2912 11.7505H30.7591V27.9392H34.2912V11.7505ZM29.5286 11.7505H25.9965V27.9392H29.5286V11.7505ZM24.7661 11.7505H21.2339V27.9392H24.7661V11.7505ZM20.0034 11.7505H16.4712V27.9392H20.0034V11.7505ZM15.2408 11.7505H11.7087V27.9392H15.2408V11.7505ZM10.4782 11.7505H6.94616V27.9392H10.4783L10.4782 11.7505ZM5.71569 11.7505H2.52148V27.9392H5.71569V11.7505ZM43.4785 27.9392V11.7505H40.2843V27.9392H43.4785ZM2.52148 32.6114H4.80471C4.88961 32.2288 5.05036 31.8748 5.27035 31.5654H2.52148V32.6114ZM9.17911 33.8419H7.98081C7.64103 33.8419 7.36558 33.5664 7.36558 33.2267C7.36558 32.8869 7.64103 32.6114 7.98081 32.6114H9.17023C8.92194 32.0041 8.32552 31.5747 7.62995 31.5747C6.71246 31.5747 5.96592 32.3211 5.96592 33.2387C5.96592 34.1563 6.71237 34.9027 7.62995 34.9027C8.33457 34.9027 8.9368 34.4618 9.17911 33.8419ZM15.545 33.2387C15.545 32.3212 14.7986 31.5747 13.881 31.5747C13.1854 31.5747 12.5889 32.0041 12.3407 32.6114H13.5301C13.8699 32.6114 14.1454 32.8869 14.1454 33.2267C14.1454 33.5664 13.8699 33.8419 13.5301 33.8419H12.3319C12.5742 34.4617 13.1764 34.9026 13.881 34.9026C14.7986 34.9027 15.545 34.1563 15.545 33.2387ZM18.038 31.5654H16.2406C16.4606 31.8748 16.6214 32.2289 16.7062 32.6114H18.038V31.5654ZM27.962 32.6022H29.2959C29.3813 32.2232 29.5412 31.8724 29.7594 31.5654H27.962V32.6022ZM33.6715 33.8327H32.4699C32.1301 33.8327 31.8546 33.5572 31.8546 33.2174C31.8546 32.8776 32.1301 32.6022 32.4699 32.6022H33.6559C33.4054 31.9997 32.8111 31.5748 32.119 31.5748C31.2015 31.5748 30.455 32.3212 30.455 33.2388C30.455 34.1564 31.2014 34.9028 32.119 34.9028C32.8271 34.9027 33.4317 34.4573 33.6715 33.8327ZM40.0341 33.2387C40.0341 32.3212 39.2876 31.5747 38.37 31.5747C37.6779 31.5747 37.0836 31.9996 36.8332 32.6021H38.0192C38.359 32.6021 38.6344 32.8776 38.6344 33.2173C38.6344 33.5571 38.359 33.8326 38.0192 33.8326H36.8176C37.0574 34.4572 37.6619 34.9026 38.37 34.9026C39.2875 34.9027 40.0341 34.1563 40.0341 33.2387ZM43.4785 32.6022V31.5654H40.7296C40.9479 31.8724 41.1078 32.2232 41.1932 32.6022H43.4785Z" fill="#4D7B7D"/>
</svg>

<svg width="46" height="46" fill="none" xmlns="http://www.w3.org/2000/svg"><path d="M44.709 37.255c0 .34-.276.615-.615.615H1.906a.615.615 0 1 1 0-1.23h42.188c.34 0 .615.275.615.615Zm0-28.51v24.472c0 .34-.276.616-.615.616h-2.891a2.9 2.9 0 0 1-2.833 2.3 2.9 2.9 0 0 1-2.833-2.3h-.585a2.9 2.9 0 0 1-2.833 2.3 2.9 2.9 0 0 1-2.833-2.3h-1.94a.615.615 0 0 1-.614-.616v-1.652h-7.463v1.662c0 .34-.276.615-.615.615h-1.942a2.9 2.9 0 0 1-2.83 2.291 2.9 2.9 0 0 1-2.832-2.291h-.59a2.899 2.899 0 0 1-2.83 2.291 2.899 2.899 0 0 1-2.83-2.291H1.905a.615.615 0 0 1-.615-.615V8.749c0-.34.275-.616.615-.616l42.188-.003a.615.615 0 0 1 .615.616Zm-42.188.619v1.156h40.957V9.36l-40.957.004Zm40.957 20.971V29.17H2.521v1.165h40.957Zm-9 1.23c.219.307.379.658.464 1.037h.605c.085-.379.245-.73.464-1.037h-1.532Zm-24.488 0c.22.31.38.664.465 1.046h.6a2.91 2.91 0 0 1 .466-1.046H9.99Zm29.064-3.626V11.751h-3.532v16.188h3.532ZM34.29 11.751h-3.53v16.188h3.532V11.751Zm-4.762 0h-3.532v16.188h3.532V11.751Zm-4.763 0h-3.532v16.188h3.532V11.751Zm-4.763 0H16.47v16.188h3.532V11.751Zm-4.762 0h-3.532v16.188h3.532V11.751Zm-4.763 0H6.946v16.188h3.532V11.751Zm-4.762 0H2.52v16.188h3.195V11.751Zm37.762 16.188V11.751h-3.194v16.188h3.194ZM2.521 32.611h2.284a2.89 2.89 0 0 1 .465-1.046H2.521v1.046Zm6.658 1.23H7.981a.615.615 0 0 1 0-1.23h1.19a1.666 1.666 0 0 0-1.541-1.036c-.918 0-1.664.746-1.664 1.664 0 .917.746 1.664 1.664 1.664.705 0 1.307-.441 1.55-1.061Zm6.366-.602c0-.918-.746-1.664-1.664-1.664-.696 0-1.292.43-1.54 1.036h1.19a.615.615 0 0 1 0 1.23h-1.2c.243.62.845 1.062 1.55 1.062.918 0 1.664-.747 1.664-1.664Zm2.493-1.674h-1.797c.22.31.38.664.465 1.046h1.332v-1.046Zm9.924 1.037h1.334c.085-.379.245-.73.463-1.037h-1.797v1.037Zm5.71 1.23H32.47a.615.615 0 0 1 0-1.23h1.186a1.666 1.666 0 0 0-1.537-1.027c-.918 0-1.664.746-1.664 1.664 0 .917.746 1.664 1.664 1.664.708 0 1.313-.446 1.553-1.07Zm6.362-.593c0-.918-.746-1.664-1.664-1.664-.692 0-1.286.425-1.537 1.027h1.186a.615.615 0 0 1 0 1.23h-1.201c.24.625.844 1.07 1.552 1.07.918 0 1.664-.746 1.664-1.663Zm3.444-.637v-1.037H40.73c.218.307.378.658.463 1.037h2.285Z" fill="#4D7B7D"/></svg>
